svgs/sharp-solid/list-dropdown.svg

<svg xmlns="http://www.w3.org/2000/svg" viewBox="0 0 512 512"><!--! Font Awesome Pro 6.6.0 by @fontawesome - https://fontawesome.com License - https://fontawesome.com/license (Commercial License) Copyright 2024 Fonticons, Inc. --><path d="M512 32L0 32 0 480l512 0 0-448zM448 192l0 224L64 416l0-224 384 0zM352 96l96 0-48 48L352 96zM128 232l-24 0 0 48 24 0 256 0 24 0 0-48-24 0-256 0zm0 96l-24 0 0 48 24 0 256 0 24 0 0-48-24 0-256 0z"/></svg>

<svg xmlns="http://www.w3.org/2000/svg" viewBox="0 0 512 512"><!--! Font Awesome Pro 6.4.2 by @fontawesome - https://fontawesome.com License - https://fontawesome.com/license (Commercial License) Copyright 2023 Fonticons, Inc. --><path d="M512 32H0V480H512V32zM448 192V416H64V192H448zM352 96h96l-48 48L352 96zM128 232H104v48h24H384h24V232H384 128zm0 96H104v48h24H384h24V328H384 128z"/></svg>
